;FLAVOR:Marlin
;TIME:2850
;Filament used: 3.17072m
;Layer height: 0.4
;MINX:69.815
;MINY:69.815
;MINZ:0.4
;MAXX:150.185
;MAXY:150.185
;MAXZ:15
;Generated with Cura_SteamEngine 4.4.1
M82 ;absolute extrusion mode
; Ender 3 Custom Start G-code
M104 S190 ; Set Extruder temperature
M140 S65 ; Set Heat Bed temperature
M190 S65 ; Wait for Heat Bed temperature
M109 S190 ; Wait for Extruder temperature
G28 ; Home all axes
G92 E0 ; Reset Extruder
G1 Z5.0 F3000 ; Move Z Axis up little to prevent scratching of Heat Bed
G1 X0.1 Y20 Z0.3 F5000.0 ; Move to start position
G1 X0.1 Y200.0 Z0.3 F1500.0 E15 ; Draw the first line
G1 X0.4 Y200.0 Z0.3 F5000.0 ; Move to side a little
G1 X0.4 Y20 Z0.3 F1500.0 E30 ; Draw the second line
G92 E0 ; Reset Extruder
G1 Z5.0 F3000 ; Move Z Axis up little to prevent scratching of Heat Bed
G92 E0
G92 E0
G1 F3000 E-6.5
;LAYER_COUNT:37
;LAYER:0
M106 S127.5
G1 F300 Z0.6
G0 F1800 X84.821 Y78.912 Z0.6
;TYPE:SKIRT
G1 F300 Z0.4
G1 F3000 E0
G1 F900 X85.057 Y78.663 E0.02282
G1 X85.707 Y78.036 E0.0829
G1 X86.652 Y77.295 E0.16278
G1 X87.589 Y76.646 E0.2386
G1 X87.819 Y76.491 E0.25705
G1 X88.364 Y76.135 E0.30035
G1 X88.63 Y75.967 E0.32128
G1 X89.412 Y75.49 E0.38221
G1 X89.642 Y75.354 E0.39999
G1 X90.432 Y74.9 E0.4606
G1 X90.727 Y74.737 E0.48302
G1 X91.425 Y74.366 E0.5356
G1 X91.567 Y74.292 E0.54625
G1 X91.87 Y74.137 E0.56889
G1 X91.987 Y74.078 E0.57761
G1 X92.538 Y73.805 E0.61851
G1 X92.865 Y73.65 E0.64258
G1 X93.905 Y73.18 E0.7185
G1 X94.134 Y73.08 E0.73512
G1 X94.775 Y72.809 E0.78142
G1 X95.108 Y72.675 E0.8053
G1 X96.132 Y72.284 E0.87821
G1 X96.363 Y72.199 E0.89458
G1 X96.978 Y71.981 E0.93799
G1 X97.268 Y71.883 E0.95835
G1 X98.028 Y71.639 E1.01145
G1 X98.194 Y71.587 E1.02302
G1 X98.538 Y71.483 E1.04692
G1 X98.659 Y71.448 E1.0553
G1 X99.206 Y71.29 E1.09318
G1 X99.507 Y71.208 E1.11393
G1 X100.413 Y70.976 E1.17614
G1 X100.67 Y70.914 E1.19373
G1 X101.571 Y70.708 E1.25521
G1 X101.96 Y70.627 E1.28164
G1 X103.072 Y70.418 E1.35691
G1 X103.314 Y70.375 E1.37326
G1 X103.915 Y70.277 E1.41376
G1 X104.205 Y70.234 E1.43326
G1 X105.035 Y70.123 E1.48897
G1 X105.223 Y70.1 E1.50157
G1 X105.519 Y70.066 E1.52139
G1 X105.639 Y70.053 E1.52942
G1 X106.29 Y69.986 E1.57295
G1 X106.627 Y69.957 E1.59545
G1 X107.75 Y69.879 E1.67033
G1 X108.023 Y69.863 E1.68852
G1 X108.681 Y69.835 E1.73233
G1 X109.018 Y69.826 E1.75476
G1 X110.176 Y69.815 E1.83179
G1 X110.458 Y69.817 E1.85055
G1 X111.065 Y69.828 E1.89094
G1 X111.386 Y69.839 E1.9123
G1 X112.533 Y69.896 E1.98869
G1 X112.791 Y69.912 E2.00589
G1 X113.43 Y69.96 E2.04851
G1 X113.79 Y69.993 E2.07256
G1 X114.963 Y70.123 E2.15107
G1 X115.223 Y70.155 E2.16849
G1 X115.807 Y70.235 E2.20771
G1 X116.143 Y70.287 E2.23032
G1 X117.289 Y70.483 E2.30766
G1 X117.542 Y70.53 E2.32478
G1 X118.186 Y70.657 E2.36844
G1 X118.48 Y70.719 E2.38843
G1 X119.261 Y70.897 E2.44171
G1 X119.421 Y70.935 E2.45265
G1 X119.772 Y71.021 E2.47669
G1 X119.904 Y71.054 E2.48574
G1 X120.448 Y71.195 E2.52313
G1 X120.782 Y71.288 E2.54619
G1 X121.908 Y71.621 E2.6243
G1 X122.156 Y71.698 E2.64157
G1 X122.74 Y71.887 E2.6824
G1 X123.066 Y71.998 E2.70531
G1 X124.156 Y72.392 E2.78241
G1 X124.408 Y72.487 E2.80033
G1 X125.044 Y72.736 E2.84576
G1 X125.373 Y72.871 E2.86941
G1 X126.4 Y73.315 E2.94384
G1 X126.624 Y73.416 E2.96019
G1 X127.192 Y73.678 E3.0018
G1 X127.493 Y73.822 E3.02399
G1 X128.492 Y74.323 E3.09834
G1 X128.741 Y74.453 E3.11702
G1 X129.343 Y74.776 E3.16247
G1 X129.596 Y74.916 E3.1817
G1 X130.33 Y75.337 E3.23799
G1 X130.492 Y75.432 E3.25048
G1 X130.731 Y75.575 E3.26901
G1 X130.829 Y75.635 E3.27665
G1 X131.44 Y76.01 E3.32434
G1 X131.732 Y76.196 E3.34737
G1 X132.571 Y76.751 E3.41428
G1 X132.774 Y76.889 E3.43061
G1 X133.341 Y77.284 E3.47658
G1 X134.059 Y77.832 E3.53666
G1 X134.964 Y78.69 E3.61962
G1 X136.671 Y80.517 E3.78594
G1 X138.5 Y82.373 E3.95928
G1 X140.313 Y84.111 E4.12634
G1 X140.949 Y84.692 E4.18365
G1 X141.087 Y84.82 E4.19617
G1 X141.335 Y85.055 E4.21889
G1 X141.962 Y85.705 E4.27897
G1 X142.703 Y86.649 E4.3588
G1 X143.353 Y87.587 E4.43471
G1 X143.509 Y87.819 E4.45331
G1 X143.865 Y88.364 E4.49661
G1 X144.033 Y88.63 E4.51754
G1 X144.51 Y89.412 E4.57847
G1 X144.646 Y89.642 E4.59625
G1 X145.1 Y90.432 E4.65686
G1 X145.263 Y90.727 E4.67928
G1 X145.634 Y91.425 E4.73186
G1 X145.708 Y91.567 E4.74251
G1 X145.863 Y91.87 E4.76515
G1 X145.918 Y91.98 E4.77333
G1 X146.191 Y92.53 E4.81418
G1 X146.351 Y92.868 E4.83905
G1 X146.821 Y93.909 E4.91503
G1 X146.92 Y94.134 E4.93138
G1 X147.191 Y94.775 E4.97768
G1 X147.325 Y95.108 E5.00156
G1 X147.716 Y96.132 E5.07447
G1 X147.799 Y96.358 E5.09048
G1 X148.017 Y96.972 E5.13383
G1 X148.118 Y97.271 E5.15482
G1 X148.362 Y98.032 E5.20798
G1 X148.413 Y98.194 E5.21928
G1 X148.517 Y98.538 E5.24318
G1 X148.551 Y98.655 E5.25129
G1 X148.709 Y99.201 E5.2891
G1 X148.793 Y99.508 E5.31027
G1 X149.025 Y100.415 E5.37255
G1 X149.086 Y100.666 E5.38973
G1 X149.291 Y101.561 E5.45081
G1 X149.373 Y101.955 E5.47758
G1 X149.583 Y103.073 E5.55325
G1 X149.625 Y103.312 E5.56939
G1 X149.723 Y103.912 E5.60983
G1 X149.766 Y104.206 E5.6296
G1 X149.877 Y105.037 E5.68537
G1 X149.9 Y105.223 E5.69783
G1 X149.934 Y105.519 E5.71765
G1 X149.947 Y105.636 E5.72548
G1 X150.014 Y106.285 E5.76888
G1 X150.044 Y106.626 E5.79166
G1 X150.122 Y107.751 E5.86667
G1 X150.137 Y108.023 E5.88479
G1 X150.165 Y108.68 E5.92853
G1 X150.174 Y109.017 E5.95096
G1 X150.185 Y110.176 E6.02806
G1 X150.183 Y110.458 E6.04682
G1 X150.172 Y111.064 E6.08714
G1 X150.161 Y111.385 E6.1085
G1 X150.104 Y112.533 E6.18496
G1 X150.088 Y112.792 E6.20222
G1 X150.04 Y113.43 E6.24478
G1 X150.007 Y113.787 E6.26863
G1 X149.877 Y114.962 E6.34727
G1 X149.844 Y115.227 E6.36503
G1 X149.764 Y115.81 E6.40418
G1 X149.713 Y116.141 E6.42646
G1 X149.517 Y117.288 E6.50386
G1 X149.47 Y117.543 E6.52111
G1 X149.343 Y118.187 E6.56477
G1 X149.28 Y118.483 E6.58491
G1 X149.102 Y119.263 E6.63813
G1 X149.065 Y119.421 E6.64892
G1 X148.979 Y119.772 E6.67296
G1 X148.945 Y119.909 E6.68235
G1 X148.804 Y120.452 E6.71967
G1 X148.713 Y120.778 E6.74218
G1 X148.38 Y121.905 E6.82035
G1 X148.301 Y122.161 E6.83818
G1 X148.112 Y122.744 E6.87894
G1 X148.014 Y123.03 E6.89906
G1 X147.701 Y123.906 E6.96094
G1 X147.641 Y124.07 E6.97255
G1 X147.56 Y124.285 E6.98783
G1 X147.513 Y124.408 E6.99659
G1 X147.264 Y125.044 E7.04203
G1 X147.13 Y125.368 E7.06535
G1 X146.687 Y126.394 E7.13969
G1 X146.579 Y126.637 E7.15738
G1 X146.316 Y127.205 E7.19902
G1 X146.18 Y127.488 E7.2199
G1 X145.679 Y128.488 E7.2943
G1 X145.55 Y128.736 E7.3129
G1 X145.228 Y129.337 E7.35826
G1 X145.062 Y129.635 E7.38095
G1 X144.498 Y130.608 E7.45576
G1 X144.36 Y130.838 E7.4736
G1 X143.981 Y131.454 E7.52171
G1 X143.833 Y131.687 E7.54007
G1 X143.492 Y132.209 E7.58155
G1 X143.398 Y132.351 E7.59288
G1 X143.186 Y132.664 E7.61802
G1 X143.113 Y132.771 E7.62664
G1 X142.717 Y133.34 E7.67275
G1 X142.169 Y134.057 E7.73279
G1 X141.308 Y134.967 E7.81612
G1 X139.463 Y136.69 E7.98405
G1 X137.627 Y138.5 E8.15555
G1 X135.889 Y140.313 E8.32261
G1 X135.308 Y140.949 E8.37991
G1 X135.18 Y141.087 E8.39243
G1 X134.945 Y141.335 E8.41516
G1 X134.295 Y141.962 E8.47524
G1 X133.351 Y142.703 E8.55507
G1 X132.413 Y143.353 E8.63098
G1 X132.181 Y143.509 E8.64958
G1 X131.636 Y143.865 E8.69288
G1 X131.37 Y144.033 E8.71381
G1 X130.588 Y144.51 E8.77474
G1 X130.358 Y144.646 E8.79252
G1 X129.568 Y145.1 E8.85313
G1 X129.273 Y145.263 E8.87555
G1 X128.575 Y145.634 E8.92813
G1 X128.433 Y145.708 E8.93878
G1 X128.13 Y145.863 E8.96142
G1 X128.006 Y145.925 E8.97064
G1 X127.462 Y146.194 E9.01101
G1 X127.148 Y146.343 E9.03413
G1 X126.101 Y146.817 E9.11058
G1 X125.866 Y146.92 E9.12765
G1 X125.225 Y147.191 E9.17394
G1 X124.892 Y147.325 E9.19782
G1 X123.868 Y147.716 E9.27074
G1 X123.637 Y147.801 E9.28711
G1 X123.022 Y148.019 E9.33051
G1 X122.732 Y148.117 E9.35088
G1 X121.972 Y148.361 E9.40397
G1 X121.806 Y148.413 E9.41554
G1 X121.462 Y148.517 E9.43945
G1 X121.341 Y148.552 E9.44783
G1 X120.794 Y148.71 E9.4857
G1 X120.493 Y148.792 E9.50646
G1 X119.587 Y149.024 E9.56867
G1 X119.334 Y149.086 E9.58599
G1 X118.439 Y149.291 E9.64707
G1 X118.045 Y149.373 E9.67384
G1 X116.927 Y149.583 E9.74951
G1 X116.686 Y149.625 E9.76579
G1 X116.085 Y149.723 E9.80629
G1 X115.795 Y149.766 E9.82579
G1 X114.965 Y149.877 E9.8815
G1 X114.777 Y149.9 E9.8941
G1 X114.481 Y149.934 E9.91392
G1 X114.361 Y149.947 E9.92195
G1 X113.71 Y150.014 E9.96548
G1 X113.373 Y150.043 E9.98798
G1 X112.25 Y150.121 E10.06286
G1 X111.977 Y150.137 E10.08105
G1 X111.319 Y150.165 E10.12486
G1 X110.982 Y150.174 E10.14729
G1 X109.824 Y150.185 E10.22432
G1 X109.542 Y150.183 E10.24308
G1 X108.936 Y150.172 E10.2834
G1 X108.615 Y150.161 E10.30476
G1 X107.467 Y150.104 E10.38122
G1 X107.208 Y150.088 E10.39849
G1 X106.57 Y150.04 E10.44105
G1 X106.213 Y150.007 E10.46489
G1 X105.038 Y149.877 E10.54353
G1 X104.773 Y149.844 E10.5613
G1 X104.19 Y149.764 E10.60044
G1 X103.859 Y149.713 E10.62272
G1 X102.712 Y149.517 E10.70012
G1 X102.457 Y149.47 E10.71737
G1 X101.813 Y149.343 E10.76104
G1 X101.517 Y149.28 E10.78117
G1 X100.737 Y149.102 E10.83439
G1 X100.579 Y149.065 E10.84518
G1 X100.228 Y148.979 E10.86922
G1 X100.091 Y148.945 E10.87861
G1 X99.548 Y148.804 E10.91593
G1 X99.222 Y148.713 E10.93844
G1 X98.095 Y148.38 E11.01662
G1 X97.839 Y148.301 E11.03444
G1 X97.256 Y148.112 E11.07521
G1 X96.937 Y148.003 E11.09763
G1 X95.846 Y147.609 E11.17479
G1 X95.592 Y147.513 E11.19285
G1 X94.956 Y147.264 E11.23829
G1 X94.632 Y147.13 E11.26161
G1 X93.606 Y146.687 E11.33595
G1 X93.363 Y146.579 E11.35364
G1 X92.795 Y146.316 E11.39528
G1 X92.512 Y146.18 E11.41616
G1 X91.512 Y145.679 E11.49057
G1 X91.259 Y145.547 E11.50955
G1 X90.657 Y145.224 E11.55499
G1 X90.367 Y145.062 E11.57709
G1 X89.395 Y144.499 E11.65181
G1 X89.162 Y144.36 E11.66986
G1 X88.546 Y143.981 E11.71797
G1 X88.307 Y143.83 E11.73678
G1 X87.749 Y143.465 E11.78113
G1 X87.605 Y143.369 E11.79264
G1 X87.328 Y143.181 E11.81491
G1 X87.229 Y143.113 E11.8229
G1 X86.66 Y142.717 E11.86901
G1 X85.943 Y142.169 E11.92904
G1 X85.033 Y141.308 E12.01238
G1 X83.31 Y139.463 E12.1803
G1 X81.5 Y137.627 E12.35181
G1 X79.687 Y135.889 E12.51887
G1 X79.051 Y135.308 E12.57617
G1 X78.913 Y135.18 E12.58869
G1 X78.665 Y134.945 E12.61142
G1 X78.038 Y134.295 E12.6715
G1 X77.322 Y133.386 E12.74847
G1 X76.806 Y132.648 E12.80837
G1 X76.689 Y132.477 E12.82215
G1 X76.529 Y132.238 E12.84129
G1 X76.464 Y132.14 E12.84911
G1 X76.133 Y131.633 E12.88939
G1 X75.964 Y131.365 E12.91046
G1 X75.488 Y130.584 E12.9713
G1 X75.356 Y130.362 E12.98848
G1 X74.901 Y129.571 E13.04918
G1 X74.734 Y129.268 E13.0722
G1 X74.364 Y128.571 E13.12469
G1 X74.292 Y128.433 E13.13505
G1 X74.137 Y128.13 E13.15769
G1 X74.078 Y128.013 E13.1664
G1 X73.805 Y127.462 E13.20731
G1 X73.65 Y127.135 E13.23138
G1 X73.18 Y126.095 E13.3073
G1 X73.08 Y125.866 E13.32392
G1 X72.809 Y125.225 E13.37021
G1 X72.675 Y124.892 E13.39409
G1 X72.284 Y123.868 E13.467
G1 X72.199 Y123.637 E13.48338
G1 X71.981 Y123.022 E13.52678
G1 X71.883 Y122.732 E13.54714
G1 X71.639 Y121.972 E13.60024
G1 X71.587 Y121.806 E13.61181
G1 X71.483 Y121.462 E13.63572
G1 X71.448 Y121.341 E13.6441
G1 X71.29 Y120.794 E13.68197
G1 X71.208 Y120.493 E13.70272
G1 X70.976 Y119.587 E13.76493
G1 X70.914 Y119.334 E13.78226
G1 X70.709 Y118.439 E13.84334
G1 X70.627 Y118.045 E13.87011
G1 X70.417 Y116.927 E13.94578
G1 X70.375 Y116.686 E13.96205
G1 X70.277 Y116.085 E14.00256
G1 X70.234 Y115.795 E14.02206
G1 X70.123 Y114.965 E14.07777
G1 X70.1 Y114.777 E14.09036
G1 X70.066 Y114.481 E14.11018
G1 X70.053 Y114.361 E14.11821
G1 X69.986 Y113.71 E14.16175
G1 X69.957 Y113.373 E14.18425
G1 X69.879 Y112.25 E14.25913
G1 X69.863 Y111.977 E14.27732
G1 X69.835 Y111.32 E14.32106
G1 X69.826 Y110.983 E14.34349
G1 X69.815 Y109.824 E14.42059
G1 X69.817 Y109.542 E14.43935
G1 X69.828 Y108.936 E14.47967
G1 X69.839 Y108.615 E14.50103
G1 X69.896 Y107.467 E14.57749
G1 X69.912 Y107.208 E14.59475
G1 X69.96 Y106.57 E14.63731
G1 X69.993 Y106.213 E14.66116
G1 X70.123 Y105.038 E14.7398
G1 X70.156 Y104.773 E14.75756
G1 X70.236 Y104.19 E14.79671
G1 X70.287 Y103.859 E14.81899
G1 X70.483 Y102.712 E14.89639
G1 X70.53 Y102.457 E14.91364
G1 X70.657 Y101.813 E14.9573
G1 X70.72 Y101.517 E14.97744
G1 X70.898 Y100.737 E15.03065
G1 X70.935 Y100.579 E15.04145
G1 X71.021 Y100.228 E15.06549
G1 X71.055 Y100.091 E15.07488
G1 X71.196 Y99.548 E15.1122
G1 X71.287 Y99.222 E15.13471
G1 X71.62 Y98.095 E15.21288
G1 X71.699 Y97.839 E15.23071
G1 X71.888 Y97.256 E15.27147
G1 X71.997 Y96.937 E15.2939
G1 X72.391 Y95.846 E15.37106
G1 X72.487 Y95.592 E15.38912
G1 X72.736 Y94.956 E15.43456
G1 X72.87 Y94.632 E15.45788
G1 X73.313 Y93.606 E15.53222
G1 X73.421 Y93.363 E15.54991
G1 X73.684 Y92.795 E15.59155
G1 X73.82 Y92.512 E15.61243
G1 X74.321 Y91.512 E15.68683
G1 X74.45 Y91.264 E15.70543
G1 X74.772 Y90.663 E15.75078
G1 X74.938 Y90.365 E15.77347
G1 X75.502 Y89.392 E15.84829
G1 X75.642 Y89.158 E15.86643
G1 X76.022 Y88.541 E15.91463
G1 X76.169 Y88.31 E15.93284
G1 X76.533 Y87.753 E15.9771
G1 X76.631 Y87.605 E15.98891
G1 X76.819 Y87.328 E16.01118
G1 X76.892 Y87.223 E16.01969
G1 X77.288 Y86.655 E16.06575
G1 X77.837 Y85.937 E16.12587
G1 X78.69 Y85.036 E16.2084
G1 X80.533 Y83.313 E16.37623
G1 X82.373 Y81.5 E16.54806
G1 X84.111 Y79.687 E16.71513
G1 X84.692 Y79.051 E16.77243
G1 X84.821 Y78.912 E16.78505
G1 F3000 E10.28505
G1 F300 Z0.6
;MESH:fixed_plate_top.stl
G0 F1800 X109.985 Y126.346 Z0.6
;TYPE:WALL-INNER
G1 F300 Z0.4
G1 F3000 E16.78505
G1 F900 X111.331 Y126.294 E16.86345
G1 X112.667 Y126.129 E16.9418
G1 X114.002 Y125.85 E17.02118
G1 X115.297 Y125.466 E17.0998
G1 X116.555 Y124.976 E17.17838
G1 X117.77 Y124.383 E17.25708
G1 X118.93 Y123.693 E17.33564
G1 X120.03 Y122.909 E17.41426
G1 X121.054 Y122.043 E17.49232
G1 X122.008 Y121.092 E17.57072
G1 X122.886 Y120.059 E17.64963
G1 X123.682 Y118.947 E17.72923
G1 X124.373 Y117.787 E17.80782
G1 X124.967 Y116.575 E17.88638
G1 X125.459 Y115.316 E17.96506
G1 X125.844 Y114.021 E18.0437
G1 X126.123 Y112.699 E18.12234
G1 X126.289 Y111.36 E18.20087
G1 X126.347 Y110.015 E18.27923
G1 X126.294 Y108.669 E18.35764
G1 X126.129 Y107.333 E18.43599
G1 X125.85 Y105.998 E18.51537
G1 X125.466 Y104.703 E18.59399
G1 X124.976 Y103.445 E18.67257
G1 X124.383 Y102.23 E18.75127
G1 X123.693 Y101.07 E18.82983
G1 X122.909 Y99.97 E18.90845
G1 X122.043 Y98.946 E18.98651
G1 X121.092 Y97.992 E19.06491
G1 X120.059 Y97.114 E19.14382
G1 X118.947 Y96.318 E19.22342
G1 X117.787 Y95.627 E19.30201
G1 X116.575 Y95.033 E19.38057
G1 X115.316 Y94.541 E19.45925
G1 X114.021 Y94.156 E19.53788
G1 X112.699 Y93.877 E19.61653
G1 X111.36 Y93.711 E19.69506
G1 X110.015 Y93.654 E19.77342
G1 X108.669 Y93.706 E19.85182
G1 X107.333 Y93.871 E19.93017
G1 X105.998 Y94.15 E20.00955
G1 X104.703 Y94.534 E20.08817
G1 X103.445 Y95.024 E20.16676
G1 X102.23 Y95.617 E20.24545
G1 X101.07 Y96.307 E20.32401
G1 X99.97 Y97.091 E20.40263
G1 X98.946 Y97.957 E20.48069
G1 X97.992 Y98.908 E20.5591
G1 X97.114 Y99.941 E20.638
G1 X96.318 Y101.053 E20.7176
G1 X95.627 Y102.213 E20.79619
G1 X95.033 Y103.425 E20.87475
G1 X94.541 Y104.684 E20.95343
G1 X94.156 Y105.979 E21.03207
G1 X93.877 Y107.301 E21.11071
G1 X93.711 Y108.64 E21.18924
G1 X93.653 Y109.985 E21.2676
G1 X93.706 Y111.331 E21.34601
G1 X93.871 Y112.667 E21.42436
G1 X94.15 Y114.002 E21.50374
G1 X94.534 Y115.297 E21.58236
G1 X95.024 Y116.555 E21.66094
G1 X95.617 Y117.77 E21.73964
G1 X96.307 Y118.93 E21.8182
G1 X97.091 Y120.03 E21.89682
G1 X97.957 Y121.054 E21.97488
G1 X98.908 Y122.008 E22.05328
G1 X99.941 Y122.886 E22.13219
G1 X101.053 Y123.682 E22.21179
G1 X102.213 Y124.373 E22.29038
G1 X103.425 Y124.967 E22.36894
G1 X104.684 Y125.459 E22.44762
G1 X105.979 Y125.844 E22.52626
G1 X107.301 Y126.123 E22.6049
G1 X108.64 Y126.289 E22.68343
G1 X109.985 Y126.346 E22.76179
G0 F1800 X109.986 Y126.021
;TYPE:WALL-OUTER
G1 F900 X111.305 Y125.97 E22.83862
G1 X112.614 Y125.808 E22.91539
G1 X113.922 Y125.535 E22.99316
G1 X115.192 Y125.158 E23.07027
G1 X116.425 Y124.678 E23.14728
G1 X117.615 Y124.097 E23.22436
G1 X118.752 Y123.421 E23.30136
G1 X119.83 Y122.652 E23.37843
G1 X120.834 Y121.803 E23.45496
G1 X121.769 Y120.871 E23.5318
G1 X122.63 Y119.859 E23.60914
G1 X123.41 Y118.769 E23.68715
G1 X124.087 Y117.632 E23.76418
