;FLAVOR:Marlin
;TIME:9012
;Filament used: 5.60608m
;Layer height: 0.2
;MINX:78.449
;MINY:81.1
;MINZ:0.4
;MAXX:142.43
;MAXY:138.894
;MAXZ:36.2
;Generated with Cura_SteamEngine 4.4.1
M82 ;absolute extrusion mode
; Ender 3 Custom Start G-code
M104 S190 ; Set Extruder temperature
M140 S65 ; Set Heat Bed temperature
M190 S65 ; Wait for Heat Bed temperature
M109 S190 ; Wait for Extruder temperature
G28 ; Home all axes
G92 E0 ; Reset Extruder
G1 Z5.0 F3000 ; Move Z Axis up little to prevent scratching of Heat Bed
G1 X0.1 Y20 Z0.3 F5000.0 ; Move to start position
G1 X0.1 Y200.0 Z0.3 F1500.0 E15 ; Draw the first line
G1 X0.4 Y200.0 Z0.3 F5000.0 ; Move to side a little
G1 X0.4 Y20 Z0.3 F1500.0 E30 ; Draw the second line
G92 E0 ; Reset Extruder
G1 Z5.0 F3000 ; Move Z Axis up little to prevent scratching of Heat Bed
G92 E0
G92 E0
G1 F3000 E-6.5
;LAYER_COUNT:179
;LAYER:0
M106 S127.5
G1 F300 Z0.6
G0 F1800 X81.638 Y84.139 Z0.6
;TYPE:SKIRT
G1 F300 Z0.4
G1 F3000 E0
G1 F900 X82.323 Y83.523 E0.06128
G1 X83.059 Y82.97 E0.12252
G1 X83.84 Y82.482 E0.18378
G1 X84.66 Y82.064 E0.245
G1 X85.514 Y81.719 E0.30627
G1 X86.394 Y81.449 E0.3675
G1 X87.294 Y81.257 E0.42872
G1 X88.208 Y81.143 E0.48999
G1 X88.761 Y81.113 E0.52683
G1 X89.082 Y81.104 E0.54819
G1 X89.379 Y81.1 E0.56795
G1 X104.718 Y81.1 E1.5883
G1 X104.864 Y81.101 E1.59802
G1 X105.59 Y81.111 E1.64632
G1 X105.896 Y81.12 E1.66668
G1 X106.527 Y81.147 E1.70869
G1 X109.179 Y81.222 E1.88517
G1 X111.69 Y81.222 E2.05221
G1 X114.282 Y81.149 E2.2247
G1 X114.64 Y81.131 E2.24854
G1 X114.843 Y81.123 E2.26205
G1 X115.441 Y81.105 E2.30185
G1 X115.76 Y81.1 E2.32307
G1 X131.099 Y81.1 E3.34343
G1 X131.251 Y81.101 E3.35354
G1 X131.947 Y81.111 E3.39984
G1 X132.866 Y81.164 E3.46108
G1 X133.777 Y81.297 E3.52232
G1 X134.674 Y81.508 E3.58362
G1 X135.548 Y81.797 E3.64485
G1 X136.394 Y82.16 E3.70609
G1 X137.205 Y82.595 E3.76731
G1 X137.976 Y83.099 E3.82858
G1 X138.7 Y83.667 E3.88979
G1 X139.372 Y84.297 E3.95107
G1 X139.986 Y84.982 E4.01226
G1 X140.539 Y85.718 E4.0735
G1 X141.026 Y86.5 E4.13478
G1 X141.443 Y87.32 E4.19597
G1 X141.788 Y88.174 E4.25724
G1 X142.057 Y89.055 E4.31852
G1 X142.249 Y89.955 E4.37973
G1 X142.362 Y90.869 E4.441
G1 X142.391 Y91.418 E4.47757
G1 X142.411 Y92.144 E4.52588
G1 X142.414 Y92.33 E4.53825
G1 X142.429 Y93.825 E4.63771
G1 X142.43 Y93.931 E4.64476
G1 X142.43 Y119.661 E6.35632
G1 X142.429 Y119.784 E6.36451
G1 X142.42 Y120.557 E6.41593
G1 X142.413 Y120.847 E6.43523
G1 X142.399 Y121.206 E6.45912
G1 X142.365 Y121.739 E6.49465
G1 X142.327 Y122.163 E6.52297
G1 X142.263 Y122.709 E6.55954
G1 X142.204 Y123.124 E6.58742
G1 X142.123 Y123.613 E6.62039
G1 X142.053 Y123.981 E6.64531
G1 X141.928 Y124.553 E6.68426
G1 X141.826 Y124.964 E6.71243
G1 X141.689 Y125.464 E6.74691
G1 X141.575 Y125.843 E6.77324
G1 X141.402 Y126.367 E6.80995
G1 X141.255 Y126.777 E6.83892
G1 X141.074 Y127.248 E6.87249
G1 X140.936 Y127.582 E6.89653
G1 X140.707 Y128.097 E6.93402
G1 X140.521 Y128.487 E6.96276
G1 X140.296 Y128.931 E6.99587
G1 X140.102 Y129.293 E7.02319
G1 X139.809 Y129.804 E7.06238
G1 X139.659 Y130.05 E7.08154
G1 X139.407 Y130.444 E7.11265
G1 X139.108 Y130.889 E7.14832
G1 X138.773 Y131.36 E7.18676
G1 X138.592 Y131.6 E7.20676
G1 X138.288 Y131.983 E7.23929
G1 X137.982 Y132.352 E7.27117
G1 X137.615 Y132.772 E7.30828
G1 X137.378 Y133.029 E7.33153
G1 X137.035 Y133.384 E7.36437
G1 X136.705 Y133.71 E7.39523
G1 X136.233 Y134.15 E7.43815
G1 X135.923 Y134.421 E7.46554
G1 X135.52 Y134.755 E7.50036
G1 X135.2 Y135.008 E7.52749
G1 X134.787 Y135.319 E7.56188
G1 X134.479 Y135.539 E7.58706
G1 X134.017 Y135.851 E7.62415
G1 X133.65 Y136.085 E7.6531
G1 X133.21 Y136.35 E7.68727
G1 X132.916 Y136.518 E7.70979
G1 X132.478 Y136.755 E7.74292
G1 X132.057 Y136.97 E7.77436
G1 X131.529 Y137.222 E7.81328
G1 X131.17 Y137.381 E7.8394
G1 X130.684 Y137.582 E7.87439
G1 X130.315 Y137.724 E7.90069
G1 X129.775 Y137.915 E7.93879
G1 X129.383 Y138.042 E7.9662
G1 X128.905 Y138.184 E7.99937
G1 X128.564 Y138.277 E8.02288
G1 X128.082 Y138.397 E8.05592
G1 X127.629 Y138.498 E8.08679
G1 X127.03 Y138.613 E8.12737
G1 X126.638 Y138.677 E8.15379
G1 X126.12 Y138.749 E8.18858
G1 X125.713 Y138.795 E8.21582
G1 X125.183 Y138.841 E8.25121
G1 X124.766 Y138.867 E8.27901
G1 X124.261 Y138.887 E8.31262
G1 X123.782 Y138.894 E8.34449
G1 X123.479 Y138.894 E8.36465
G1 X123.122 Y138.889 E8.3884
G1 X122.857 Y138.882 E8.40603
G1 X122.524 Y138.869 E8.4282
G1 X121.981 Y138.834 E8.46439
G1 X121.495 Y138.79 E8.49686
G1 X121.236 Y138.763 E8.51418
G1 X120.829 Y138.716 E8.54143
G1 X118.267 Y138.455 E8.71274
G1 X115.697 Y138.266 E8.88416
G1 X113.188 Y138.153 E9.05123
G1 X110.674 Y138.111 E9.21848
G1 X108.161 Y138.14 E9.38566
G1 X105.593 Y138.242 E9.55662
G1 X103.103 Y138.412 E9.72264
G1 X100.377 Y138.678 E9.90483
G1 X99.324 Y138.796 E9.97532
G1 X98.813 Y138.841 E10.00944
G1 X98.404 Y138.867 E10.0367
G1 X97.887 Y138.887 E10.07112
G1 X97.407 Y138.894 E10.10305
G1 X97.104 Y138.894 E10.12321
G1 X96.747 Y138.889 E10.14696
G1 X96.495 Y138.882 E10.16373
G1 X96.151 Y138.869 E10.18663
G1 X95.594 Y138.834 E10.22375
G1 X95.175 Y138.796 E10.25174
G1 X94.64 Y138.733 E10.28757
G1 X94.232 Y138.675 E10.31499
G1 X93.711 Y138.588 E10.35012
G1 X93.318 Y138.512 E10.37675
G1 X92.807 Y138.4 E10.41155
G1 X92.444 Y138.311 E10.43641
G1 X91.92 Y138.168 E10.47254
G1 X91.487 Y138.038 E10.50261
G1 X90.983 Y137.873 E10.53789
G1 X90.595 Y137.735 E10.56529
G1 X90.057 Y137.527 E10.60365
G1 X89.727 Y137.389 E10.62745
G1 X89.253 Y137.177 E10.66199
G1 X88.861 Y136.99 E10.69088
G1 X88.367 Y136.739 E10.72774
G1 X88.041 Y136.562 E10.75242
G1 X87.638 Y136.331 E10.78331
G1 X87.277 Y136.114 E10.81133
G1 X86.784 Y135.799 E10.85025
G1 X86.429 Y135.558 E10.87879
G1 X85.99 Y135.243 E10.91473
G1 X85.666 Y134.998 E10.94176
G1 X85.243 Y134.661 E10.97773
G1 X84.95 Y134.415 E11.00318
G1 X84.551 Y134.063 E11.03857
G1 X84.241 Y133.775 E11.06672
G1 X83.862 Y133.404 E11.102
G1 X83.602 Y133.137 E11.12679
G1 X83.244 Y132.751 E11.16181
G1 X82.969 Y132.439 E11.18948
G1 X82.644 Y132.052 E11.2231
G1 X82.416 Y131.767 E11.24737
G1 X82.067 Y131.306 E11.28584
G1 X81.797 Y130.928 E11.31674
G1 X81.517 Y130.515 E11.34993
G1 X81.335 Y130.233 E11.37225
G1 X81.052 Y129.769 E11.40841
G1 X80.803 Y129.336 E11.44163
G1 X80.541 Y128.852 E11.47824
G1 X80.38 Y128.535 E11.50189
G1 X80.132 Y128.011 E11.54046
G1 X79.957 Y127.614 E11.56932
G1 X79.743 Y127.092 E11.60685
G1 X79.604 Y126.725 E11.63295
G1 X79.44 Y126.26 E11.66575
G1 X79.315 Y125.877 E11.69255
G1 X79.167 Y125.381 E11.72698
G1 X79.052 Y124.96 E11.75601
G1 X78.914 Y124.395 E11.7947
G1 X78.845 Y124.074 E11.81654
G1 X78.755 Y123.604 E11.84838
G1 X78.679 Y123.152 E11.87887
G1 X78.597 Y122.57 E11.91796
G1 X78.552 Y122.167 E11.94494
G1 X78.509 Y121.667 E11.97832
G1 X78.483 Y121.26 E12.00545
G1 X78.462 Y120.722 E12.04126
G1 X78.45 Y119.8 E12.1026
G1 X78.449 Y119.662 E12.11178
G1 X78.449 Y92.375 E13.92692
G1 X78.45 Y92.232 E13.93643
G1 X78.459 Y91.566 E13.98074
G1 X78.511 Y90.647 E14.04197
G1 X78.643 Y89.735 E14.10327
G1 X78.854 Y88.839 E14.1645
G1 X79.141 Y87.965 E14.22569
G1 X79.504 Y87.118 E14.28699
G1 X79.938 Y86.307 E14.34818
G1 X80.441 Y85.536 E14.40941
G1 X81.009 Y84.811 E14.47068
G1 X81.638 Y84.139 E14.53191
G0 F1800 X82.03 Y84.317
G1 F900 X82.711 Y83.724 E14.59198
G1 X83.442 Y83.194 E14.65204
G1 X84.218 Y82.731 E14.71215
G1 X85.031 Y82.338 E14.77222
G1 X85.875 Y82.018 E14.83226
G1 X86.745 Y81.775 E14.89235
G1 X87.633 Y81.609 E14.95244
G1 X88.772 Y81.513 E15.02848
G1 X89.093 Y81.504 E15.04984
G1 X89.379 Y81.5 E15.06886
G1 X104.718 Y81.5 E16.08922
G1 X104.858 Y81.501 E16.09853
G1 X105.584 Y81.511 E16.14683
G1 X105.879 Y81.519 E16.16646
G1 X106.568 Y81.548 E16.21233
G1 X109.168 Y81.622 E16.38536
G1 X111.701 Y81.622 E16.55385
G1 X114.267 Y81.549 E16.72461
G1 X114.66 Y81.53 E16.75079
G1 X114.855 Y81.523 E16.76377
G1 X115.453 Y81.505 E16.80356
G1 X115.76 Y81.5 E16.82399
G1 X131.099 Y81.5 E17.84434
G1 X131.246 Y81.501 E17.85412
G1 X131.942 Y81.511 E17.90042
G1 X132.843 Y81.564 E17.96046
G1 X133.736 Y81.696 E18.02051
G1 X134.615 Y81.907 E18.08064
G1 X135.471 Y82.195 E18.14072
G1 X136.298 Y82.558 E18.2008
G1 X137.09 Y82.992 E18.26087
G1 X137.84 Y83.494 E18.32091
G1 X138.543 Y84.061 E18.38099
G1 X139.193 Y84.688 E18.44106
G1 X139.785 Y85.37 E18.50114
G1 X140.315 Y86.102 E18.56125
G1 X140.777 Y86.877 E18.62127
G1 X141.17 Y87.691 E18.6814
G1 X141.488 Y88.536 E18.74146
G1 X141.731 Y89.406 E18.80155
G1 X141.896 Y90.293 E18.86156
G1 X141.991 Y91.429 E18.93739
G1 X142.011 Y92.155 E18.9857
G1 X142.014 Y92.334 E18.99761
G1 X142.029 Y93.829 E19.09707
G1 X142.03 Y93.931 E19.10385
G1 X142.03 Y119.661 E20.81542
G1 X142.029 Y119.78 E20.82333
G1 X142.02 Y120.553 E20.87476
G1 X142.013 Y120.831 E20.89326
G1 X141.999 Y121.19 E20.91715
G1 X141.966 Y121.704 E20.95142
G1 X141.928 Y122.128 E20.97973
G1 X141.867 Y122.653 E21.01489
G1 X141.808 Y123.068 E21.04278
G1 X141.73 Y123.538 E21.07447
G1 X141.66 Y123.906 E21.09939
G1 X141.54 Y124.457 E21.1369
G1 X141.438 Y124.868 E21.16507
G1 X141.306 Y125.349 E21.19825
G1 X141.192 Y125.728 E21.22457
G1 X141.026 Y126.232 E21.25987
G1 X140.879 Y126.642 E21.28884
G1 X140.704 Y127.095 E21.32115
G1 X140.566 Y127.429 E21.34519
G1 X140.346 Y127.925 E21.38128
G1 X140.16 Y128.315 E21.41002
G1 X139.943 Y128.742 E21.44189
G1 X139.749 Y129.104 E21.46921
G1 X139.468 Y129.596 E21.5069
G1 X139.318 Y129.842 E21.52606
G1 X139.075 Y130.221 E21.55601
G1 X138.776 Y130.666 E21.59167
G1 X138.454 Y131.119 E21.62864
G1 X138.273 Y131.359 E21.64864
G1 X137.981 Y131.728 E21.67994
G1 X137.675 Y132.097 E21.71183
G1 X137.321 Y132.501 E21.74756
G1 X137.084 Y132.758 E21.77082
G1 X136.754 Y133.099 E21.80238
G1 X136.424 Y133.425 E21.83324
G1 X135.969 Y133.848 E21.87456
G1 X135.659 Y134.119 E21.90195
G1 X135.272 Y134.441 E21.93544
G1 X134.952 Y134.694 E21.96258
G1 X134.555 Y134.993 E21.99564
G1 X134.247 Y135.213 E22.02082
G1 X133.802 Y135.514 E22.05656
G1 X133.435 Y135.748 E22.08551
G1 X133.012 Y136.003 E22.11836
G1 X132.718 Y136.171 E22.14089
G1 X132.296 Y136.399 E22.1728
G1 X131.875 Y136.614 E22.20424
G1 X131.367 Y136.856 E22.24167
G1 X131.008 Y137.015 E22.26779
G1 X130.54 Y137.208 E22.30147
G1 X130.171 Y137.35 E22.32777
G1 X129.652 Y137.534 E22.3644
G1 X129.26 Y137.661 E22.39181
G1 X128.8 Y137.799 E22.42375
G1 X128.459 Y137.892 E22.44726
G1 X127.995 Y138.007 E22.47906
G1 X127.542 Y138.108 E22.50994
G1 X126.966 Y138.219 E22.54896
G1 X126.574 Y138.283 E22.57538
G1 X126.076 Y138.351 E22.60881
G1 X125.669 Y138.397 E22.63606
G1 X125.158 Y138.442 E22.67018
G1 X124.741 Y138.468 E22.69798
G1 X124.255 Y138.487 E22.73033
G1 X123.776 Y138.494 E22.7622
G1 X123.484 Y138.494 E22.78162
G1 X123.127 Y138.489 E22.80537
G1 X122.872 Y138.482 E22.82234
G1 X122.539 Y138.469 E22.84451
G1 X122.017 Y138.435 E22.8793
G1 X121.531 Y138.391 E22.91177
G1 X121.282 Y138.366 E22.92841
G1 X120.839 Y138.315 E22.95808
G1 X118.304 Y138.056 E23.12758
G1 X115.743 Y137.868 E23.2984
G1 X113.213 Y137.755 E23.46686
G1 X110.641 Y137.711 E23.63798
G1 X108.141 Y137.74 E23.80429
G1 X105.583 Y137.842 E23.97458
G1 X103.073 Y138.013 E24.14194
G1 X100.292 Y138.284 E24.32781
G1 X99.279 Y138.398 E24.39562
G1 X98.788 Y138.441 E24.4284
G1 X98.379 Y138.467 E24.45566
G1 X97.881 Y138.487 E24.48882
G1 X97.401 Y138.494 E24.52075
G1 X97.109 Y138.494 E24.54018
G1 X96.752 Y138.489 E24.56393
G1 X96.51 Y138.483 E24.58003
G1 X96.166 Y138.47 E24.60293
G1 X95.63 Y138.435 E24.63866
G1 X95.211 Y138.397 E24.66664
G1 X94.696 Y138.337 E24.70113
G1 X94.288 Y138.279 E24.72855
G1 X93.787 Y138.195 E24.76234
G1 X93.394 Y138.119 E24.78897
G1 X92.902 Y138.012 E24.82246
G1 X92.539 Y137.923 E24.84732
G1 X92.035 Y137.785 E24.88208
G1 X91.602 Y137.655 E24.91216
G1 X91.117 Y137.496 E24.94611
G1 X90.729 Y137.358 E24.9735
G1 X90.212 Y137.158 E25.01038
G1 X89.882 Y137.02 E25.03417
G1 X89.425 Y136.816 E25.06746
G1 X89.033 Y136.629 E25.09635
G1 X88.558 Y136.387 E25.13181
G1 X88.232 Y136.21 E25.15649
G1 X87.844 Y135.988 E25.18622
G1 X87.483 Y135.771 E25.21424
G1 X87.009 Y135.468 E25.25167
G1 X86.654 Y135.227 E25.28021
G1 X86.231 Y134.924 E25.31482
G1 X85.907 Y134.679 E25.34184
G1 X85.5 Y134.355 E25.37645
G1 X85.207 Y134.109 E25.40189
G1 X84.824 Y133.77 E25.43592
G1 X84.514 Y133.482 E25.46407
G1 X84.148 Y133.125 E25.49808
G1 X83.888 Y132.858 E25.52287
G1 X83.544 Y132.486 E25.55657
G1 X83.269 Y132.174 E25.58424
G1 X82.956 Y131.802 E25.61658
G1 X82.728 Y131.517 E25.64085
G1 X82.393 Y131.074 E25.6778
G1 X82.123 Y130.696 E25.7087
G1 X81.853 Y130.298 E25.74069
G1 X81.671 Y130.016 E25.76302
G1 X81.399 Y129.57 E25.79777
G1 X81.15 Y129.137 E25.83099
G1 X80.898 Y128.671 E25.86624
G1 X80.737 Y128.354 E25.88989
G1 X80.498 Y127.849 E25.92705
G1 X80.323 Y127.452 E25.95591
G1 X80.117 Y126.951 E25.99195
G1 X79.978 Y126.584 E26.01805
G1 X79.82 Y126.136 E26.04965
G1 X79.695 Y125.753 E26.07645
G1 X79.552 Y125.276 E26.10958
G1 X79.437 Y124.855 E26.13861
G1 X79.305 Y124.311 E26.17584
G1 X79.236 Y123.99 E26.19768
G1 X79.149 Y123.537 E26.22837
G1 X79.073 Y123.085 E26.25886
G1 X78.995 Y122.526 E26.2964
G1 X78.95 Y122.123 E26.32338
G1 X78.908 Y121.641 E26.35556
G1 X78.882 Y121.234 E26.38269
G1 X78.862 Y120.717 E26.41711
G1 X78.85 Y119.795 E26.47844
G1 X78.849 Y119.662 E26.48729
G1 X78.849 Y92.375 E28.30243
G1 X78.85 Y92.237 E28.31161
G1 X78.859 Y91.571 E28.35592
G1 X78.911 Y90.67 E28.41595
G1 X79.043 Y89.776 E28.47607
G1 X79.253 Y88.898 E28.53612
G1 X79.54 Y88.042 E28.59617
G1 X79.902 Y87.214 E28.65629
G1 X80.335 Y86.422 E28.71633
G1 X80.837 Y85.671 E28.77642
G1 X81.403 Y84.967 E28.83651
G1 X82.03 Y84.317 E28.89658
G1 F3000 E22.39658
G1 F300 Z0.6
;MESH:microwave_handle_adapter.stl(1)
G0 F1800 X98.518 Y127.345 Z0.6
;TYPE:WALL-INNER
G1 F300 Z0.4
G1 F3000 E28.89658
G1 F900 X98.183 Y127.387 E28.91624
G1 X97.819 Y127.415 E28.93749
G1 X97.427 Y127.425 E28.96031
G1 X97.071 Y127.425 E28.98103
G1 X96.678 Y127.415 E29.00391
G1 X96.314 Y127.387 E29.02516
G1 X95.979 Y127.345 E29.04481
G1 X95.621 Y127.28 E29.06599
G1 X95.244 Y127.193 E29.08851
G1 X94.928 Y127.102 E29.10765
G1 X94.577 Y126.982 E29.12924
G1 X94.24 Y126.847 E29.15037
G1 X93.898 Y126.69 E29.17228
G1 X93.594 Y126.532 E29.19222
G1 X93.275 Y126.344 E29.21377
G1 X92.968 Y126.141 E29.23519
G1 X92.7 Y125.944 E29.25455
G1 X92.392 Y125.692 E29.27772
G1 X92.137 Y125.461 E29.29774
G1 X91.888 Y125.213 E29.3182
G1 X91.651 Y124.949 E29.33885
G1 X91.4 Y124.642 E29.36193
G1 X91.211 Y124.383 E29.38059
G1 X91 Y124.066 E29.40276
G1 X90.818 Y123.754 E29.42378
G1 X90.641 Y123.416 E29.44599
G1 X90.499 Y123.106 E29.46583
G1 X90.366 Y122.77 E29.48687
G1 X90.252 Y122.439 E29.50724
G1 X90.153 Y122.09 E29.52836
G1 X90.068 Y121.727 E29.55006
G1 X90.003 Y121.358 E29.57187
G1 X89.961 Y121.025 E29.5914
G1 X89.934 Y120.673 E29.61195
G1 X89.924 Y120.3 E29.63367
G1 X89.924 Y92.575 E31.24741
G1 X104.56 Y92.575 E32.0993
G1 X104.574 Y93.609 E32.15949
G1 X104.574 Y120.276 E33.71165
G1 X104.563 Y120.675 E33.73488
G1 X104.538 Y121.013 E33.75461
G1 X104.494 Y121.358 E33.77485
G1 X104.429 Y121.722 E33.79638
G1 X104.345 Y122.086 E33.81812
G1 X104.244 Y122.442 E33.83966
G1 X104.138 Y122.753 E33.85878
G1 X103.993 Y123.116 E33.88153
G1 X103.856 Y123.416 E33.90073
G1 X103.672 Y123.767 E33.9238
G1 X103.496 Y124.069 E33.94414
G1 X103.304 Y124.361 E33.96448
G1 X103.096 Y124.645 E33.98497
G1 X102.864 Y124.931 E34.00641
G1 X102.609 Y125.213 E34.02854
G1 X102.355 Y125.467 E34.04945
G1 X102.094 Y125.702 E34.06989
G1 X101.812 Y125.931 E34.09103
G1 X101.515 Y126.15 E34.11251
G1 X101.222 Y126.344 E34.13296
G1 X100.897 Y126.535 E34.15491
G1 X100.589 Y126.696 E34.17513
G1 X100.264 Y126.845 E34.19594
G1 X99.921 Y126.982 E34.21744
G1 X99.57 Y127.102 E34.23903
G1 X99.254 Y127.193 E34.25817
G1 X98.876 Y127.28 E34.28075
G1 X98.518 Y127.345 E34.30193
G0 F1800 X98.58 Y127.688
G1 F900 X98.566 Y127.691 E34.30276
G1 X98.213 Y127.736 E34.32347
G1 X97.835 Y127.765 E34.34554
G1 X97.436 Y127.775 E34.36877
G1 X97.062 Y127.775 E34.39054
G1 X96.662 Y127.765 E34.41383
G1 X96.284 Y127.736 E34.4359
G1 X95.931 Y127.691 E34.45661
G1 X95.541 Y127.621 E34.47967
G1 X95.161 Y127.533 E34.50237
G1 X94.822 Y127.435 E34.52291
G1 X94.45 Y127.308 E34.54579
