;FLAVOR:Marlin
;TIME:4426
;Filament used: 4.59656m
;Layer height: 0.4
;MINX:59.821
;MINY:59.811
;MINZ:0.4
;MAXX:160.191
;MAXY:160.185
;MAXZ:15
;Generated with Cura_SteamEngine 4.4.1
M82 ;absolute extrusion mode
; Ender 3 Custom Start G-code
M104 S190 ; Set Extruder temperature
M140 S65 ; Set Heat Bed temperature
M190 S65 ; Wait for Heat Bed temperature
M109 S190 ; Wait for Extruder temperature
G28 ; Home all axes
G92 E0 ; Reset Extruder
G1 Z5.0 F3000 ; Move Z Axis up little to prevent scratching of Heat Bed
G1 X0.1 Y20 Z0.3 F5000.0 ; Move to start position
G1 X0.1 Y200.0 Z0.3 F1500.0 E15 ; Draw the first line
G1 X0.4 Y200.0 Z0.3 F5000.0 ; Move to side a little
G1 X0.4 Y20 Z0.3 F1500.0 E30 ; Draw the second line
G92 E0 ; Reset Extruder
G1 Z5.0 F3000 ; Move Z Axis up little to prevent scratching of Heat Bed
G92 E0
G92 E0
G1 F3000 E-6.5
;LAYER_COUNT:37
;LAYER:0
M106 S127.5
G1 F300 Z0.6
G0 F1800 X74.319 Y74.716 Z0.6
;TYPE:SKIRT
G1 F300 Z0.4
G1 F3000 E0
G1 F900 X74.947 Y74.098 E0.05861
G1 X75.042 Y74.005 E0.06745
G1 X75.672 Y73.401 E0.12551
G1 X75.785 Y73.295 E0.13582
G1 X76.256 Y72.857 E0.1786
G1 X76.491 Y72.645 E0.19965
G1 X77.109 Y72.105 E0.25425
G1 X77.224 Y72.006 E0.26434
G1 X77.993 Y71.354 E0.33141
G1 X78.117 Y71.25 E0.34217
G1 X78.413 Y71.007 E0.36765
G1 X78.681 Y70.795 E0.39038
G1 X80.247 Y69.595 E0.52162
G1 X80.438 Y69.452 E0.53749
G1 X80.882 Y69.128 E0.57405
G1 X81.149 Y68.94 E0.59577
G1 X81.916 Y68.417 E0.65753
G1 X82.045 Y68.33 E0.66788
G1 X82.771 Y67.851 E0.72573
G1 X82.892 Y67.772 E0.73535
G1 X83.433 Y67.426 E0.77806
G1 X83.692 Y67.266 E0.79832
G1 X84.424 Y66.828 E0.85506
G1 X84.555 Y66.751 E0.86517
G1 X85.347 Y66.293 E0.92603
G1 X85.488 Y66.213 E0.93681
G1 X86.003 Y65.926 E0.97603
G1 X86.254 Y65.791 E0.99499
G1 X87.056 Y65.373 E1.05515
G1 X87.213 Y65.293 E1.06687
G1 X88.02 Y64.89 E1.12687
G1 X88.144 Y64.829 E1.13607
G1 X88.776 Y64.524 E1.18275
G1 X89.041 Y64.401 E1.20218
G1 X89.548 Y64.174 E1.23913
G1 X89.705 Y64.105 E1.25054
G1 X90.722 Y63.67 E1.32412
G1 X90.861 Y63.612 E1.33414
G1 X91.402 Y63.39 E1.37304
G1 X91.686 Y63.278 E1.39335
G1 X92.745 Y62.88 E1.4686
G1 X92.914 Y62.818 E1.48058
G1 X93.566 Y62.586 E1.52661
G1 X93.674 Y62.548 E1.53423
G1 X94.251 Y62.35 E1.57481
G1 X94.551 Y62.252 E1.5958
G1 X95.425 Y61.982 E1.65665
G1 X95.573 Y61.938 E1.66692
G1 X96.397 Y61.697 E1.72403
G1 X96.532 Y61.659 E1.73336
G1 X97.076 Y61.508 E1.77091
G1 X97.395 Y61.425 E1.79284
G1 X98.51 Y61.154 E1.86917
G1 X98.643 Y61.122 E1.87827
G1 X99.294 Y60.973 E1.92269
G1 X99.44 Y60.941 E1.93264
G1 X100.18 Y60.783 E1.98297
G1 X100.442 Y60.73 E2.00075
G1 X100.952 Y60.635 E2.03526
G1 X101.155 Y60.6 E2.04896
G1 X102.243 Y60.42 E2.12232
G1 X102.386 Y60.397 E2.13196
G1 X103.075 Y60.293 E2.17831
G1 X103.368 Y60.253 E2.19798
G1 X104.151 Y60.158 E2.25045
G1 X104.317 Y60.14 E2.26155
G1 X105.243 Y60.043 E2.32349
G1 X105.393 Y60.028 E2.33352
G1 X105.938 Y59.979 E2.36992
G1 X106.247 Y59.956 E2.39053
G1 X107.529 Y59.88 E2.47596
G1 X107.664 Y59.873 E2.48495
G1 X108.251 Y59.846 E2.52404
G1 X108.398 Y59.84 E2.53382
G1 X109.127 Y59.817 E2.58234
G1 X109.426 Y59.812 E2.60223
G1 X109.872 Y59.811 E2.6319
G1 X110.052 Y59.812 E2.64388
G1 X111.223 Y59.83 E2.72178
G1 X111.357 Y59.833 E2.7307
G1 X112.023 Y59.852 E2.77502
G1 X112.336 Y59.866 E2.79586
G1 X113.196 Y59.917 E2.85317
G1 X113.357 Y59.928 E2.8639
G1 X114.274 Y59.997 E2.92507
G1 X114.414 Y60.008 E2.93441
G1 X115.02 Y60.062 E2.97489
G1 X115.325 Y60.094 E2.99529
G1 X116.145 Y60.192 E3.05022
G1 X116.303 Y60.212 E3.06081
G1 X117.286 Y60.345 E3.1268
G1 X117.432 Y60.366 E3.13661
G1 X117.865 Y60.431 E3.16574
G1 X118.188 Y60.485 E3.18752
G1 X119.537 Y60.732 E3.27875
G1 X119.672 Y60.757 E3.28788
G1 X120.22 Y60.865 E3.32504
G1 X120.352 Y60.892 E3.334
G1 X120.926 Y61.013 E3.37302
G1 X121.24 Y61.085 E3.39445
G1 X122.08 Y61.29 E3.45197
G1 X122.218 Y61.324 E3.46142
G1 X123.099 Y61.552 E3.52196
G1 X123.266 Y61.597 E3.53346
G1 X123.757 Y61.733 E3.56735
G1 X124.051 Y61.819 E3.58773
G1 X125.359 Y62.224 E3.67881
G1 X125.487 Y62.265 E3.68775
G1 X125.956 Y62.417 E3.72055
G1 X126.11 Y62.468 E3.73134
G1 X126.742 Y62.684 E3.77577
G1 X127.012 Y62.781 E3.79485
G1 X127.791 Y63.072 E3.85017
G1 X127.947 Y63.132 E3.86129
G1 X128.783 Y63.46 E3.92103
G1 X128.922 Y63.515 E3.93097
G1 X129.562 Y63.777 E3.97697
G1 X129.834 Y63.893 E3.99664
G1 X130.454 Y64.168 E4.04176
G1 X130.598 Y64.233 E4.05227
G1 X131.552 Y64.674 E4.12218
G1 X131.707 Y64.748 E4.13361
G1 X132.262 Y65.016 E4.17461
G1 X132.518 Y65.144 E4.19364
G1 X133.273 Y65.535 E4.2502
G1 X133.41 Y65.607 E4.2605
G1 X134.214 Y66.039 E4.32121
G1 X134.344 Y66.11 E4.33107
G1 X134.905 Y66.422 E4.37377
G1 X135.175 Y66.577 E4.39448
G1 X135.877 Y66.996 E4.44886
G1 X136.006 Y67.075 E4.45892
G1 X136.821 Y67.578 E4.52263
G1 X136.952 Y67.66 E4.53291
G1 X137.433 Y67.967 E4.57087
G1 X137.679 Y68.129 E4.59046
G1 X138.447 Y68.651 E4.65223
G1 X138.586 Y68.748 E4.66351
G1 X139.303 Y69.253 E4.72184
G1 X139.428 Y69.342 E4.73205
G1 X139.93 Y69.707 E4.77334
G1 X140.159 Y69.878 E4.79235
G1 X140.822 Y70.389 E4.84803
G1 X140.951 Y70.49 E4.85893
G1 X141.684 Y71.074 E4.92127
G1 X141.807 Y71.174 E4.93182
G1 X142.291 Y71.572 E4.9735
G1 X142.514 Y71.761 E4.99295
G1 X143.137 Y72.304 E5.04792
G1 X143.263 Y72.415 E5.05909
G1 X143.96 Y73.043 E5.1215
G1 X144.056 Y73.131 E5.13016
G1 X144.506 Y73.547 E5.17093
G1 X144.735 Y73.766 E5.19201
G1 X145.35 Y74.371 E5.24939
G1 X145.465 Y74.485 E5.26016
G1 X146.108 Y75.138 E5.32113
G1 X146.205 Y75.239 E5.33044
G1 X146.639 Y75.692 E5.37217
G1 X146.84 Y75.907 E5.39175
G1 X147.387 Y76.512 E5.44601
G1 X147.503 Y76.643 E5.45765
G1 X148.117 Y77.346 E5.51973
G1 X148.206 Y77.449 E5.52879
G1 X148.649 Y77.97 E5.57428
G1 X148.85 Y78.214 E5.59531
G1 X149.281 Y78.754 E5.64127
G1 X149.375 Y78.873 E5.65136
G1 X150.009 Y79.692 E5.72025
G1 X150.105 Y79.819 E5.73084
G1 X150.476 Y80.314 E5.77199
G1 X150.651 Y80.554 E5.79175
G1 X151.148 Y81.259 E5.84913
G1 X151.235 Y81.385 E5.85932
G1 X151.745 Y82.132 E5.91948
G1 X151.83 Y82.258 E5.92959
G1 X152.183 Y82.792 E5.97218
G1 X152.348 Y83.049 E5.99249
G1 X152.775 Y83.739 E6.04647
G1 X152.859 Y83.878 E6.05727
G1 X153.348 Y84.697 E6.12072
G1 X153.423 Y84.826 E6.13065
G1 X153.74 Y85.375 E6.17282
G1 X153.881 Y85.627 E6.19203
G1 X154.257 Y86.323 E6.24465
G1 X154.335 Y86.47 E6.25572
G1 X154.792 Y87.35 E6.32168
G1 X154.863 Y87.489 E6.33206
G1 X155.154 Y88.071 E6.37535
G1 X155.271 Y88.313 E6.39323
G1 X155.53 Y88.867 E6.43391
G1 X155.611 Y89.044 E6.44686
G1 X156.039 Y90.007 E6.51696
G1 X156.097 Y90.14 E6.52661
G1 X156.389 Y90.823 E6.57602
G1 X156.487 Y91.061 E6.59314
G1 X156.725 Y91.659 E6.63596
G1 X156.804 Y91.865 E6.65063
G1 X157.182 Y92.878 E6.72256
G1 X157.226 Y92.998 E6.73106
G1 X157.427 Y93.558 E6.77064
G1 X157.524 Y93.84 E6.79048
G1 X157.773 Y94.603 E6.84387
G1 X157.821 Y94.755 E6.85447
G1 X158.105 Y95.674 E6.91845
G1 X158.151 Y95.825 E6.92895
G1 X158.345 Y96.489 E6.97497
G1 X158.422 Y96.768 E6.99422
G1 X158.584 Y97.387 E7.03679
G1 X158.624 Y97.548 E7.04782
G1 X158.874 Y98.571 E7.11787
G1 X158.909 Y98.715 E7.12773
G1 X159.051 Y99.335 E7.17004
G1 X159.111 Y99.616 E7.18916
G1 X159.28 Y100.463 E7.24661
G1 X159.317 Y100.659 E7.25988
G1 X159.469 Y101.507 E7.31718
G1 X159.49 Y101.627 E7.32529
G1 X159.584 Y102.19 E7.36326
G1 X159.632 Y102.51 E7.38478
G1 X159.814 Y103.863 E7.4756
G1 X159.833 Y104.013 E7.48565
G1 X159.895 Y104.532 E7.52042
G1 X159.91 Y104.663 E7.52919
G1 X159.978 Y105.302 E7.57194
G1 X160.005 Y105.605 E7.59218
G1 X160.055 Y106.26 E7.63587
G1 X160.066 Y106.42 E7.64654
G1 X160.13 Y107.478 E7.71705
G1 X160.139 Y107.641 E7.72791
G1 X160.167 Y108.271 E7.76986
G1 X160.176 Y108.56 E7.78909
G1 X160.19 Y109.43 E7.84697
G1 X160.191 Y109.594 E7.85788
G1 X160.191 Y110.49 E7.91748
G1 X160.19 Y110.639 E7.92739
G1 X160.182 Y111.185 E7.96372
G1 X160.173 Y111.497 E7.98448
G1 X160.119 Y112.69 E8.06392
G1 X160.111 Y112.832 E8.07338
G1 X160.074 Y113.457 E8.11503
G1 X160.063 Y113.617 E8.1257
G1 X160.005 Y114.39 E8.17726
G1 X159.983 Y114.65 E8.19462
G1 X159.934 Y115.136 E8.22711
G1 X159.912 Y115.331 E8.24017
G1 X159.776 Y116.462 E8.31594
G1 X159.756 Y116.618 E8.3264
G1 X159.666 Y117.28 E8.37085
G1 X159.622 Y117.575 E8.39069
G1 X159.488 Y118.383 E8.44517
G1 X159.463 Y118.526 E8.45483
G1 X159.298 Y119.44 E8.51661
G1 X159.27 Y119.587 E8.52656
G1 X159.17 Y120.098 E8.5612
G1 X159.103 Y120.415 E8.58275
G1 X158.829 Y121.612 E8.66444
G1 X158.794 Y121.76 E8.67455
G1 X158.634 Y122.414 E8.71934
G1 X158.599 Y122.552 E8.72881
G1 X158.456 Y123.103 E8.76668
G1 X158.376 Y123.394 E8.78675
G1 X158.126 Y124.252 E8.8462
G1 X158.081 Y124.4 E8.85649
G1 X157.811 Y125.277 E8.91753
G1 X157.765 Y125.425 E8.92784
G1 X157.605 Y125.918 E8.96232
G1 X157.504 Y126.213 E8.98306
G1 X157.122 Y127.278 E9.05832
G1 X157.076 Y127.404 E9.06725
G1 X156.813 Y128.108 E9.11724
G1 X156.755 Y128.26 E9.12806
G1 X156.561 Y128.755 E9.16343
G1 X156.443 Y129.043 E9.18413
G1 X156.024 Y130.023 E9.25503
G1 X155.96 Y130.168 E9.26557
G1 X155.646 Y130.872 E9.31685
G1 X155.593 Y130.989 E9.32539
G1 X155.325 Y131.57 E9.36796
G1 X155.191 Y131.85 E9.3886
G1 X154.828 Y132.578 E9.44272
G1 X154.75 Y132.73 E9.45408
G1 X154.316 Y133.565 E9.51668
G1 X154.25 Y133.69 E9.52608
G1 X153.956 Y134.237 E9.56739
G1 X153.811 Y134.499 E9.58731
G1 X153.39 Y135.23 E9.64343
G1 X153.309 Y135.368 E9.65407
G1 X152.817 Y136.192 E9.71791
G1 X152.743 Y136.314 E9.7274
G1 X152.446 Y136.796 E9.76506
G1 X152.28 Y137.056 E9.78558
G1 X151.809 Y137.771 E9.84254
G1 X151.718 Y137.906 E9.85337
G1 X151.18 Y138.695 E9.91689
G1 X151.105 Y138.805 E9.92575
G1 X150.793 Y139.25 E9.9619
G1 X150.6 Y139.516 E9.98376
G1 X149.954 Y140.377 E10.05536
G1 X149.86 Y140.499 E10.06561
G1 X149.404 Y141.088 E10.11516
G1 X149.325 Y141.19 E10.12374
G1 X148.942 Y141.672 E10.16469
G1 X148.74 Y141.918 E10.18587
G1 X148.159 Y142.604 E10.24567
G1 X148.057 Y142.722 E10.25604
G1 X147.456 Y143.41 E10.31681
G1 X147.362 Y143.517 E10.32629
G1 X146.964 Y143.96 E10.3659
G1 X146.754 Y144.186 E10.38642
G1 X146.185 Y144.782 E10.44124
G1 X146.072 Y144.899 E10.45206
G1 X145.39 Y145.591 E10.51669
G1 X145.293 Y145.688 E10.52581
G1 X144.885 Y146.091 E10.56396
G1 X144.659 Y146.307 E10.58475
G1 X143.997 Y146.922 E10.64486
G1 X143.882 Y147.027 E10.65522
G1 X143.216 Y147.627 E10.71485
G1 X143.102 Y147.728 E10.72498
G1 X142.649 Y148.124 E10.76501
G1 X142.417 Y148.321 E10.78525
G1 X141.734 Y148.883 E10.84409
G1 X141.614 Y148.981 E10.85439
G1 X140.897 Y149.553 E10.91541
G1 X140.778 Y149.646 E10.92545
G1 X140.314 Y150.005 E10.96448
G1 X140.073 Y150.186 E10.98453
G1 X139.346 Y150.715 E11.04434
G1 X139.217 Y150.807 E11.05488
G1 X138.494 Y151.316 E11.11369
G1 X138.383 Y151.393 E11.12268
G1 X137.876 Y151.74 E11.16355
G1 X137.616 Y151.913 E11.18432
G1 X136.868 Y152.392 E11.24341
G1 X136.73 Y152.478 E11.25422
G1 X135.934 Y152.97 E11.31647
G1 X135.808 Y153.047 E11.32629
G1 X135.325 Y153.336 E11.36374
G1 X135.059 Y153.49 E11.38418
G1 X134.294 Y153.917 E11.44246
G1 X134.157 Y153.992 E11.45285
G1 X133.384 Y154.408 E11.51124
G1 X133.248 Y154.48 E11.52148
G1 X132.718 Y154.755 E11.5612
G1 X132.443 Y154.892 E11.58164
G1 X131.402 Y155.393 E11.65849
G1 X131.263 Y155.459 E11.66872
G1 X130.619 Y155.757 E11.71593
G1 X130.5 Y155.811 E11.72462
G1 X129.988 Y156.04 E11.76193
G1 X129.707 Y156.161 E11.78228
G1 X128.874 Y156.504 E11.8422
G1 X128.71 Y156.569 E11.85394
G1 X127.888 Y156.891 E11.91266
G1 X127.758 Y156.941 E11.92193
G1 X127.048 Y157.208 E11.97239
G1 X126.773 Y157.307 E11.99183
G1 X126.322 Y157.462 E12.02355
G1 X126.158 Y157.517 E12.03506
G1 X125.056 Y157.875 E12.11214
G1 X124.927 Y157.916 E12.12114
G1 X124.321 Y158.104 E12.16335
G1 X124.016 Y158.194 E12.1845
G1 X123.18 Y158.425 E12.2422
G1 X123.03 Y158.465 E12.25252
G1 X122.184 Y158.685 E12.31067
G1 X122.052 Y158.718 E12.31972
G1 X121.279 Y158.908 E12.37267
G1 X121.006 Y158.971 E12.39131
G1 X120.591 Y159.061 E12.41956
G1 X120.393 Y159.102 E12.43301
G1 X119.216 Y159.333 E12.5128
G1 X119.084 Y159.358 E12.52173
G1 X118.465 Y159.471 E12.56359
G1 X118.159 Y159.522 E12.58422
G1 X117.326 Y159.648 E12.64027
G1 X117.172 Y159.67 E12.65061
G1 X116.244 Y159.796 E12.71291
G1 X116.097 Y159.815 E12.72277
G1 X115.502 Y159.887 E12.76264
G1 X115.194 Y159.92 E12.78325
G1 X114.319 Y159.999 E12.84169
G1 X114.17 Y160.011 E12.85163
G1 X113.269 Y160.079 E12.91174
G1 X113.107 Y160.09 E12.92254
G1 X112.62 Y160.119 E12.95499
G1 X112.308 Y160.133 E12.97577
G1 X110.923 Y160.173 E13.06793
G1 X110.793 Y160.176 E13.07658
G1 X110.294 Y160.184 E13.10978
G1 X110.13 Y160.185 E13.12069
G1 X109.423 Y160.185 E13.16772
G1 X109.149 Y160.181 E13.18595
G1 X108.517 Y160.164 E13.22801
G1 X108.328 Y160.157 E13.24059
G1 X107.14 Y160.103 E13.31969
G1 X106.49 Y160.065 E13.36301
G1 X106.172 Y160.041 E13.38422
G1 X105.349 Y159.967 E13.43919
G1 X105.202 Y159.953 E13.44901
G1 X104.274 Y159.856 E13.51108
G1 X104.117 Y159.838 E13.52159
G1 X103.626 Y159.779 E13.55449
G1 X103.314 Y159.737 E13.57543
G1 X101.929 Y159.527 E13.66861
G1 X101.778 Y159.503 E13.67878
G1 X101.317 Y159.426 E13.70987
G1 X101.194 Y159.404 E13.71818
G1 X100.498 Y159.279 E13.76522
G1 X100.191 Y159.219 E13.78603
G1 X99.543 Y159.082 E13.83009
G1 X99.387 Y159.048 E13.84071
G1 X98.36 Y158.814 E13.91078
G1 X98.207 Y158.778 E13.92123
G1 X97.609 Y158.632 E13.96218
G1 X97.317 Y158.556 E13.98225
G1 X96.472 Y158.323 E14.04056
G1 X96.324 Y158.281 E14.05079
G1 X95.485 Y158.036 E14.10893
G1 X95.358 Y157.998 E14.11775
G1 X94.695 Y157.795 E14.16388
G1 X94.386 Y157.695 E14.18548
G1 X93.721 Y157.468 E14.23222
G1 X93.58 Y157.419 E14.24215
G1 X92.627 Y157.078 E14.30948
G1 X92.501 Y157.032 E14.3184
G1 X92.01 Y156.849 E14.35326
G1 X91.688 Y156.723 E14.37626
G1 X90.481 Y156.226 E14.46309
G1 X90.354 Y156.172 E14.47227
G1 X89.863 Y155.962 E14.50779
G1 X89.74 Y155.909 E14.5167
G1 X89.122 Y155.635 E14.56167
G1 X88.83 Y155.5 E14.58307
G1 X88.068 Y155.133 E14.63933
G1 X87.937 Y155.068 E14.64906
G1 X87.146 Y154.673 E14.70787
G1 X87.025 Y154.612 E14.71689
G1 X86.465 Y154.323 E14.75881
G1 X86.182 Y154.171 E14.78018
G1 X85.379 Y153.724 E14.84131
G1 X85.229 Y153.639 E14.85278
G1 X84.488 Y153.21 E14.90974
G1 X84.372 Y153.142 E14.91868
G1 X83.809 Y152.806 E14.96229
G1 X83.558 Y152.651 E14.98192
G1 X82.87 Y152.213 E15.03617
G1 X82.728 Y152.121 E15.04743
G1 X81.995 Y151.637 E15.10586
G1 X81.876 Y151.558 E15.11536
G1 X81.178 Y151.083 E15.17152
G1 X80.954 Y150.926 E15.18972
G1 X80.632 Y150.694 E15.21612
G1 X80.472 Y150.576 E15.22934
G1 X79.522 Y149.863 E15.30835
G1 X79.414 Y149.78 E15.31741
G1 X78.871 Y149.361 E15.36304
G1 X78.633 Y149.172 E15.38325
G1 X78.054 Y148.697 E15.43307
G1 X77.925 Y148.59 E15.44422
G1 X77.187 Y147.964 E15.5086
G1 X77.067 Y147.86 E15.51916
G1 X76.586 Y147.439 E15.56168
G1 X76.375 Y147.249 E15.58057
G1 X75.756 Y146.676 E15.63668
G1 X75.641 Y146.568 E15.64717
G1 X74.953 Y145.911 E15.71045
G1 X74.849 Y145.811 E15.72005
G1 X74.454 Y145.423 E15.75688
G1 X74.229 Y145.194 E15.77824
G1 X73.579 Y144.514 E15.84081
G1 X73.482 Y144.412 E15.85018
G1 X72.885 Y143.77 E15.90849
G1 X72.772 Y143.646 E15.91965
G1 X72.378 Y143.208 E15.95884
G1 X72.18 Y142.982 E15.97883
G1 X71.59 Y142.286 E16.03952
G1 X71.499 Y142.176 E16.04902
G1 X70.989 Y141.557 E16.10237
G1 X70.889 Y141.434 E16.11292
G1 X70.438 Y140.869 E16.16101
G1 X70.257 Y140.635 E16.18068
G1 X69.733 Y139.938 E16.23869
G1 X69.634 Y139.805 E16.24972
G1 X69.129 Y139.11 E16.30687
G1 X69.047 Y138.995 E16.31626
G1 X68.649 Y138.431 E16.36218
G1 X68.482 Y138.187 E16.38185
G1 X68.104 Y137.617 E16.42735
G1 X68.007 Y137.467 E16.43923
G1 X67.462 Y136.613 E16.50662
G1 X67.385 Y136.492 E16.51616
G1 X67.038 Y135.931 E16.56004
G1 X66.877 Y135.66 E16.58101
G1 X66.463 Y134.942 E16.63614
G1 X66.392 Y134.817 E16.6457
G1 X65.93 Y133.989 E16.70878
G1 X65.862 Y133.865 E16.71818
G1 X65.51 Y133.213 E16.76747
G1 X65.383 Y132.971 E16.78565
G1 X65.208 Y132.625 E16.81144
G1 X65.117 Y132.441 E16.8251
G1 X64.579 Y131.322 E16.90769
G1 X64.52 Y131.196 E16.91695
G1 X64.313 Y130.75 E16.94965
G1 X64.18 Y130.451 E16.97142
G1 X63.624 Y129.145 E17.06584
G1 X63.579 Y129.038 E17.07356
G1 X63.377 Y128.548 E17.10882
G1 X63.312 Y128.385 E17.12049
